X:51
T:New Years Gift THO4.051, The
M:2/4
L:1/8
Z:vmp. Peter Dunk 2010/11.from a transcription by Fynn Titford-Mock 2007
B:Thompson's Compleat Collection of 200 Favourite Country Dances Volume IV.
Q:1/4=140
K:G
B2 Bd|dc c2|A2 Ac|cB B2|G2G2|cedc|BAGF|G2G2::d2 cd|e2 de|f2 ef|g2g2|
B2B2|cedc|BAGF|{F}G2G2::G2G>G|G2G2|ABcA|BcdB|G2 G>G|G2G2|AcAF|{F}G2G2:|

